images/instagram.svg

<svg width="116" height="116" viewBox="0 0 116 116" fill="none" xmlns="http://www.w3.org/2000/svg">
<path d="M57.6932 34.1658C43.3722 34.1658 31.5062 45.8272 31.5062 60.3528C31.5062 74.8783 43.1676 86.5397 57.6932 86.5397C72.2187 86.5397 83.8801 74.6738 83.8801 60.3528C83.8801 46.0318 72.0142 34.1658 57.6932 34.1658ZM57.6932 77.1288C48.4868 77.1288 40.9172 69.5591 40.9172 60.3528C40.9172 51.1464 48.4868 43.5768 57.6932 43.5768C66.8995 43.5768 74.4692 51.1464 74.4692 60.3528C74.4692 69.5591 66.8995 77.1288 57.6932 77.1288Z" fill="black"/>
<path d="M84.903 39.485C88.1797 39.485 90.836 36.8288 90.836 33.5521C90.836 30.2754 88.1797 27.6191 84.903 27.6191C81.6263 27.6191 78.97 30.2754 78.97 33.5521C78.97 36.8288 81.6263 39.485 84.903 39.485Z" fill="black"/>
<path d="M100.247 18.2081C94.9277 12.6843 87.358 9.82013 78.7654 9.82013H36.6208C18.8219 9.82013 6.95593 21.6861 6.95593 39.485V81.4251C6.95593 90.2223 9.82013 97.7919 15.5485 103.316C21.0723 108.635 28.4374 111.295 36.8254 111.295H78.5609C87.358 111.295 94.7231 108.43 100.042 103.316C105.566 97.9965 108.43 90.4268 108.43 81.6297V39.485C108.43 30.8924 105.566 23.5274 100.247 18.2081ZM99.4286 81.6297C99.4286 87.9718 97.1781 93.0864 93.4956 96.5644C89.8131 100.042 84.6984 101.884 78.5609 101.884H36.8254C30.6879 101.884 25.5732 100.042 21.8907 96.5644C18.2081 92.8819 16.3669 87.7672 16.3669 81.4251V39.485C16.3669 33.3475 18.2081 28.2328 21.8907 24.5503C25.3686 21.0723 30.6879 19.2311 36.8254 19.2311H78.97C85.1076 19.2311 90.2222 21.0723 93.9048 24.7549C97.3827 28.4374 99.4286 33.5521 99.4286 39.485V81.6297Z" fill="black"/>
</svg>

<?xml version="1.0" encoding="UTF-8"?>
<svg xmlns="http://www.w3.org/2000/svg" version="1.1" viewBox="0 0 116 116">
  <defs>
    <style>
      .cls-1 {
        fill: #f50b0b;
      }
    </style>
  </defs>
  <!-- Generator: Adobe Illustrator 28.7.5, SVG Export Plug-In . SVG Version: 1.2.0 Build 176)  -->
  <g>
    <g id="Layer_1">
      <path class="cls-1" d="M57.7,34.2c-14.3,0-26.2,11.7-26.2,26.2s11.7,26.2,26.2,26.2,26.2-11.9,26.2-26.2-11.9-26.2-26.2-26.2ZM57.7,77.1c-9.2,0-16.8-7.6-16.8-16.8s7.6-16.8,16.8-16.8,16.8,7.6,16.8,16.8-7.6,16.8-16.8,16.8Z"/>
      <path class="cls-1" d="M84.9,39.5c3.3,0,5.9-2.7,5.9-5.9s-2.7-5.9-5.9-5.9-5.9,2.7-5.9,5.9,2.7,5.9,5.9,5.9Z"/>
      <path class="cls-1" d="M100.2,18.2c-5.3-5.5-12.9-8.4-21.5-8.4h-42.1c-17.8,0-29.7,11.9-29.7,29.7v41.9c0,8.8,2.9,16.4,8.6,21.9,5.5,5.3,12.9,8,21.3,8h41.7c8.8,0,16.2-2.9,21.5-8,5.5-5.3,8.4-12.9,8.4-21.7v-42.1c0-8.6-2.9-16-8.2-21.3ZM99.4,81.6c0,6.3-2.3,11.5-5.9,14.9-3.7,3.5-8.8,5.3-14.9,5.3h-41.7c-6.1,0-11.3-1.8-14.9-5.3-3.7-3.7-5.5-8.8-5.5-15.1v-41.9c0-6.1,1.8-11.3,5.5-14.9,3.5-3.5,8.8-5.3,14.9-5.3h42.1c6.1,0,11.3,1.8,14.9,5.5,3.5,3.7,5.5,8.8,5.5,14.7v42.1Z"/>
    </g>
  </g>
</svg>
